symbols/web/hdr_auto_select/materialsymbolsrounded/hdr_auto_select_wght100_48px.svg

<svg xmlns="http://www.w3.org/2000/svg" height="48" width="48"><path d="m21.85 16.55 2.05-5.4h.15l2.1 5.4Zm2.15 8.5q-3.85 0-6.55-2.65-2.7-2.65-2.7-6.55 0-3.85 2.675-6.55Q20.1 6.6 24 6.6q3.85 0 6.55 2.675 2.7 2.675 2.7 6.575 0 3.85-2.675 6.525Q27.9 25.05 24 25.05Zm-4.3-4q.15 0 .325-.125.175-.125.225-.275l1.15-2.9h5.2l1.15 2.85q.1.2.25.325t.4.125q.4 0 .625-.3.225-.3.025-.7L24.85 9.7q-.1-.2-.35-.4-.25-.2-.5-.2-.3 0-.575.2-.275.2-.375.4l-3.9 10.5q-.15.35.025.6t.525.25Zm22.9 21.9q-.3 0-.475-.175t-.175-.475v-3.35H38.6q-.3 0-.475-.175t-.175-.475q0-.25.175-.425t.475-.175h3.35v-3.4q0-.25.175-.425t.475-.175q.25 0 .425.175t.175.425v3.4h3.4q.25 0 .425.175t.175.425q0 .3-.175.475t-.425.175h-3.4v3.4q0 .25-.175.425t-.425.175Zm-14.95.25q-.25 0-.425-.175t-.175-.425v-9.2q0-.3.2-.525.2-.225.5-.225h4.75q1.25 0 2.05.8.8.8.8 2.05v.55q0 .8-.525 1.65-.525.85-1.825 1.25l1.5 3.4q.15.35 0 .6t-.55.25q-.2 0-.4-.125t-.25-.275l-1.6-3.7h-3.45v3.5q0 .25-.175.425t-.425.175Zm.6-5.35h4.25q.6 0 1.1-.5.5-.5.5-1.1v-.75q0-.6-.5-1.1-.5-.5-1.1-.5h-4.25ZM1.4 43.2q-.25 0-.425-.175T.8 42.6v-9.35q0-.25.175-.425t.425-.175q.25 0 .425.175T2 33.25v3.45h5.85v-3.45q0-.25.175-.425t.425-.175q.25 0 .425.175t.175.425v9.35q0 .25-.175.425t-.425.175q-.25 0-.425-.175T7.85 42.6v-4.65H2v4.65q0 .25-.175.425T1.4 43.2Zm13.25 0q-.3 0-.525-.2-.225-.2-.225-.55V33.4q0-.3.225-.525.225-.225.525-.225h4.7q1.15 0 1.975.825.825.825.825 2.025v4.9q0 1.15-.825 1.975-.825.825-1.975.825Zm.5-1.2h4.2q.6 0 1.1-.5.5-.5.5-1.1v-4.9q0-.6-.5-1.1-.5-.5-1.1-.5h-4.2Z"/></svg>

<svg xmlns="http://www.w3.org/2000/svg" height="48" width="48"><path d="M21.85 16.55 23.9 11.15H24.05L26.15 16.55ZM24 25.05Q20.15 25.05 17.45 22.4Q14.75 19.75 14.75 15.85Q14.75 12 17.425 9.3Q20.1 6.6 24 6.6Q27.85 6.6 30.55 9.275Q33.25 11.95 33.25 15.85Q33.25 19.7 30.575 22.375Q27.9 25.05 24 25.05ZM19.7 21.05Q19.85 21.05 20.025 20.925Q20.2 20.8 20.25 20.65L21.4 17.75H26.6L27.75 20.6Q27.85 20.8 28 20.925Q28.15 21.05 28.4 21.05Q28.8 21.05 29.025 20.75Q29.25 20.45 29.05 20.05L24.85 9.7Q24.75 9.5 24.5 9.3Q24.25 9.1 24 9.1Q23.7 9.1 23.425 9.3Q23.15 9.5 23.05 9.7L19.15 20.2Q19 20.55 19.175 20.8Q19.35 21.05 19.7 21.05ZM42.6 42.95Q42.3 42.95 42.125 42.775Q41.95 42.6 41.95 42.3V38.95H38.6Q38.3 38.95 38.125 38.775Q37.95 38.6 37.95 38.3Q37.95 38.05 38.125 37.875Q38.3 37.7 38.6 37.7H41.95V34.3Q41.95 34.05 42.125 33.875Q42.3 33.7 42.6 33.7Q42.85 33.7 43.025 33.875Q43.2 34.05 43.2 34.3V37.7H46.6Q46.85 37.7 47.025 37.875Q47.2 38.05 47.2 38.3Q47.2 38.6 47.025 38.775Q46.85 38.95 46.6 38.95H43.2V42.35Q43.2 42.6 43.025 42.775Q42.85 42.95 42.6 42.95ZM27.65 43.2Q27.4 43.2 27.225 43.025Q27.05 42.85 27.05 42.6V33.4Q27.05 33.1 27.25 32.875Q27.45 32.65 27.75 32.65H32.5Q33.75 32.65 34.55 33.45Q35.35 34.25 35.35 35.5V36.05Q35.35 36.85 34.825 37.7Q34.3 38.55 33 38.95L34.5 42.35Q34.65 42.7 34.5 42.95Q34.35 43.2 33.95 43.2Q33.75 43.2 33.55 43.075Q33.35 42.95 33.3 42.8L31.7 39.1H28.25V42.6Q28.25 42.85 28.075 43.025Q27.9 43.2 27.65 43.2ZM28.25 37.85H32.5Q33.1 37.85 33.6 37.35Q34.1 36.85 34.1 36.25V35.5Q34.1 34.9 33.6 34.4Q33.1 33.9 32.5 33.9H28.25ZM1.4 43.2Q1.15 43.2 0.975 43.025Q0.8 42.85 0.8 42.6V33.25Q0.8 33 0.975 32.825Q1.15 32.65 1.4 32.65Q1.65 32.65 1.825 32.825Q2 33 2 33.25V36.7H7.85V33.25Q7.85 33 8.025 32.825Q8.2 32.65 8.45 32.65Q8.7 32.65 8.875 32.825Q9.05 33 9.05 33.25V42.6Q9.05 42.85 8.875 43.025Q8.7 43.2 8.45 43.2Q8.2 43.2 8.025 43.025Q7.85 42.85 7.85 42.6V37.95H2V42.6Q2 42.85 1.825 43.025Q1.65 43.2 1.4 43.2ZM14.65 43.2Q14.35 43.2 14.125 43Q13.9 42.8 13.9 42.45V33.4Q13.9 33.1 14.125 32.875Q14.35 32.65 14.65 32.65H19.35Q20.5 32.65 21.325 33.475Q22.15 34.3 22.15 35.5V40.4Q22.15 41.55 21.325 42.375Q20.5 43.2 19.35 43.2ZM15.15 42H19.35Q19.95 42 20.45 41.5Q20.95 41 20.95 40.4V35.5Q20.95 34.9 20.45 34.4Q19.95 33.9 19.35 33.9H15.15Z"/></svg>
